img/layered-waves-haikei.svg

<?xml version="1.0" encoding="utf-8"?>
<!-- Generator: Adobe Illustrator 23.0.1, SVG Export Plug-In . SVG Version: 6.00 Build 0)  -->
<svg version="1.1" id="visual" xmlns="http://www.w3.org/2000/svg" xmlns:xlink="http://www.w3.org/1999/xlink" x="0px" y="0px"
	 viewBox="0 0 1920 1080" style="enable-background:new 0 0 1920 1080;" xml:space="preserve">
<style type="text/css">
	.st0{fill:#E43F5A;}
	.st1{fill:#D668B9;}
	.st2{fill:#979AF0;}
	.st3{fill:#5FBEF4;}
</style>
<path class="st0" d="M0,768l45.7,10.7c45.6,10.6,137,32,228.5,30.3s183.1-26.3,274.6-12.5S731.7,862.7,823,865s182.7-45.3,274-40
	s182.7,63.7,274.2,77.2s183.1-17.9,274.6-26.2s182.9,6.3,228.5,13.7l45.7,7.3v184h-45.7c-45.6,0-137,0-228.5,0s-183.1,0-274.6,0
	s-182.9,0-274.2,0s-182.7,0-274,0s-182.7,0-274.2,0s-183.1,0-274.6,0s-182.9,0-228.5,0H0V768z"/>
<path class="st1" d="M0,983l45.7-16.3c45.6-16.4,137-49,228.5-65.5s183.1-16.9,274.6-6.4s182.9,31.9,274.2,49
	c91.3,17.2,182.7,30.2,274,23c91.3-7.1,182.7-34.5,274.2-56.3s183.1-38.2,274.6-46.2s182.9-7.6,228.5-7.5l45.7,0.2v224h-45.7
	c-45.6,0-137,0-228.5,0s-183.1,0-274.6,0s-182.9,0-274.2,0s-182.7,0-274,0s-182.7,0-274.2,0s-183.1,0-274.6,0s-182.9,0-228.5,0H0
	V983z"/>
<path class="st2" d="M0,945l45.7-8.7c45.6-8.6,137-26,228.5-39.1c91.5-13.2,183.1-22.2,274.6-9.5c91.5,12.6,182.9,47,274.2,47
	s182.7-34.4,274-37.2s182.7,25.8,274.2,27s183.1-25.2,274.6-19.7s182.9,42.9,228.5,61.5L1920,985v96h-45.7c-45.6,0-137,0-228.5,0
	s-183.1,0-274.6,0s-182.9,0-274.2,0s-182.7,0-274,0s-182.7,0-274.2,0s-183.1,0-274.6,0s-182.9,0-228.5,0H0V945z"/>
<path class="st3" d="M0,918l45.7,16.2c45.6,16.1,137,48.5,228.5,65.5s183.1,18.6,274.6,2.6s182.9-49.6,274.2-46.6
	s182.7,42.6,274,45.8s182.7-30.2,274.2-34.7s183.1,19.9,274.6,23.4s182.9-13.9,228.5-22.5l45.7-8.7v122h-45.7c-45.6,0-137,0-228.5,0
	s-183.1,0-274.6,0s-182.9,0-274.2,0s-182.7,0-274,0s-182.7,0-274.2,0s-183.1,0-274.6,0s-182.9,0-228.5,0H0V918z"/>
</svg>

<svg id="visual" viewBox="0 0 1920 1080" width="1920" height="1080" xmlns="http://www.w3.org/2000/svg" xmlns:xlink="http://www.w3.org/1999/xlink" version="1.1"><path d="M0 768L45.7 778.7C91.3 789.3 182.7 810.7 274.2 809C365.7 807.3 457.3 782.7 548.8 796.5C640.3 810.3 731.7 862.7 823 865C914.3 867.3 1005.7 819.7 1097 825C1188.3 830.3 1279.7 888.7 1371.2 902.2C1462.7 915.7 1554.3 884.3 1645.8 876C1737.3 867.7 1828.7 882.3 1874.3 889.7L1920 897L1920 1081L1874.3 1081C1828.7 1081 1737.3 1081 1645.8 1081C1554.3 1081 1462.7 1081 1371.2 1081C1279.7 1081 1188.3 1081 1097 1081C1005.7 1081 914.3 1081 823 1081C731.7 1081 640.3 1081 548.8 1081C457.3 1081 365.7 1081 274.2 1081C182.7 1081 91.3 1081 45.7 1081L0 1081Z" fill="#e43f5a"></path><path d="M0 983L45.7 966.7C91.3 950.3 182.7 917.7 274.2 901.2C365.7 884.7 457.3 884.3 548.8 894.8C640.3 905.3 731.7 926.7 823 943.8C914.3 961 1005.7 974 1097 966.8C1188.3 959.7 1279.7 932.3 1371.2 910.5C1462.7 888.7 1554.3 872.3 1645.8 864.3C1737.3 856.3 1828.7 856.7 1874.3 856.8L1920 857L1920 1081L1874.3 1081C1828.7 1081 1737.3 1081 1645.8 1081C1554.3 1081 1462.7 1081 1371.2 1081C1279.7 1081 1188.3 1081 1097 1081C1005.7 1081 914.3 1081 823 1081C731.7 1081 640.3 1081 548.8 1081C457.3 1081 365.7 1081 274.2 1081C182.7 1081 91.3 1081 45.7 1081L0 1081Z" fill="#d668b9"></path><path d="M0 945L45.7 936.3C91.3 927.7 182.7 910.3 274.2 897.2C365.7 884 457.3 875 548.8 887.7C640.3 900.3 731.7 934.7 823 934.7C914.3 934.7 1005.7 900.3 1097 897.5C1188.3 894.7 1279.7 923.3 1371.2 924.5C1462.7 925.7 1554.3 899.3 1645.8 904.8C1737.3 910.3 1828.7 947.7 1874.3 966.3L1920 985L1920 1081L1874.3 1081C1828.7 1081 1737.3 1081 1645.8 1081C1554.3 1081 1462.7 1081 1371.2 1081C1279.7 1081 1188.3 1081 1097 1081C1005.7 1081 914.3 1081 823 1081C731.7 1081 640.3 1081 548.8 1081C457.3 1081 365.7 1081 274.2 1081C182.7 1081 91.3 1081 45.7 1081L0 1081Z" fill="#979af0"></path><path d="M0 918L45.7 934.2C91.3 950.3 182.7 982.7 274.2 999.7C365.7 1016.7 457.3 1018.3 548.8 1002.3C640.3 986.3 731.7 952.7 823 955.7C914.3 958.7 1005.7 998.3 1097 1001.5C1188.3 1004.7 1279.7 971.3 1371.2 966.8C1462.7 962.3 1554.3 986.7 1645.8 990.2C1737.3 993.7 1828.7 976.3 1874.3 967.7L1920 959L1920 1081L1874.3 1081C1828.7 1081 1737.3 1081 1645.8 1081C1554.3 1081 1462.7 1081 1371.2 1081C1279.7 1081 1188.3 1081 1097 1081C1005.7 1081 914.3 1081 823 1081C731.7 1081 640.3 1081 548.8 1081C457.3 1081 365.7 1081 274.2 1081C182.7 1081 91.3 1081 45.7 1081L0 1081Z" fill="#5fbef4"></path><path d="M0 1072L45.7 1069C91.3 1066 182.7 1060 274.2 1047.8C365.7 1035.7 457.3 1017.3 548.8 1005.7C640.3 994 731.7 989 823 1002C914.3 1015 1005.7 1046 1097 1047.3C1188.3 1048.7 1279.7 1020.3 1371.2 1018.8C1462.7 1017.3 1554.3 1042.7 1645.8 1047.3C1737.3 1052 1828.7 1036 1874.3 1028L1920 1020L1920 1081L1874.3 1081C1828.7 1081 1737.3 1081 1645.8 1081C1554.3 1081 1462.7 1081 1371.2 1081C1279.7 1081 1188.3 1081 1097 1081C1005.7 1081 914.3 1081 823 1081C731.7 1081 640.3 1081 548.8 1081C457.3 1081 365.7 1081 274.2 1081C182.7 1081 91.3 1081 45.7 1081L0 1081Z" fill="#7ed4dd"></path></svg>
